!!!!SEGMENT: pl-kk--kk-i-7--043_anonim--haec-est-virgo-sapiens.krn
!!!cenid: 16xx:842
!!!COM: Anonim
!!!COM-rismid: pe30004985
!!!CDT:
!!!CNT:
!!!OTL: Haec est virgo sapiens
!!!PDT:
!!!AGN: Sacred
!!!SMS-siglum: PL-Kk
!!!SMS-shelfmark: Kk.I.7
!!!SMS-shelfwork: 043 W
!!!SMS-variant:
!!!SMS-altvar:
!!!NIFC-rismid: 300258120
!!!URL-scan: http://repozytorium.nifc.pl/skany/pl-kk-nut--i-7
!!!ONB-nifc: UWAGA: C (skan 0038, s. 71), A (0122, s.65), T(0198, s.61), B(0288, s.63). Następny utwór: Gaude Maria virgo
**kern	**text	**kern	**text	**kern	**text	**kern	**text
*part4	*part4	*part3	*part3	*part2	*part2	*part1	*part1
*staff4	*staff4	*staff3	*staff3	*staff2	*staff2	*staff1	*staff1
*Ibass	*	*Itenor	*	*Ialto	*	*Isoprn	*
*I"BASSVS.	*	*I"TENOR.	*	*I"ALTVS.	*	*I"CANTVS.	*
*I'B	*	*I'T	*	*I'A	*	*I'C	*
*clefF4	*	*clefC4	*	*clefC3	*	*clefC1	*
*k[b-]	*	*k[b-]	*	*k[b-]	*	*k[b-]	*
*F:	*	*F:	*	*F:	*	*F:	*
*met(C|)	*	*met(C|)	*	*met(C|)	*	*met(C|)	*
=1-	=1-	=1-	=1-	=1-	=1-	=1-	=1-
!	!	!	!	!LO:TX:t=P:problem:kreska pseudotaktowa	!	!	!
!LO:TX:t=P:problem:przy kluczu BB- B-	!	!	!	!LO:TX:a:t=1.	!	!LO:TX:t=P:problem:kreska pseudotaktowa	!
!LO:TX:t=P:problem:inicjał H na początku pięciolinii, przed kluczem	!	!LO:TX:t=P:problem:inicjał H na początku pięciolinii, przed kluczem	!	!LO:TX:t=P:problem:inicjał H na początku pięciolinii, przed kluczem	!	!LO:TX:t=P:problem:inicjał H na początku pięciolinii, przed kluczem	!
!LO:TX:t=P:problem:kreska pseudotaktowa	!	!	!	!	!	!	!
00r	.	0rd	.	1r	.	1cc	Haec
.	.	.	.	1f	Haec	1a	est
=2-	=2-	=2-	=2-	=2-	=2-	=2-	=2-
!	!	!LO:TX:t=P:problem:kreska pseudotaktowa	!	!LO:TX:t=P:problem:kreska pseudotaktowa	!	!	!
.	.	1re	.	1d	est	1b-X	Vir-
!	!	!	!	!	!	!LO:TX:t=P:problem:kreska pseudotaktowa	!
.	.	1c	Haec	1en	Vir-	1g	-go
=3-	=3-	=3-	=3-	=3-	=3-	=3-	=3-
!LO:TX:t=P:problem:kreska pseudotaktowa	!	!LO:TX:t=P:problem:kreska pseudotaktowa	!	!	!	!	!
1F	Haec	1A	est	1c	-go	4a\	Sa-
.	.	.	.	.	.	4g\	.
.	.	.	.	.	.	4f/	.
.	.	.	.	.	.	4e/	.
1D	est	1B-	Vir-	1d	Sa-	2.f/	.
!	!	!	!	!	!	!LO:TX:t=P:problem:kreska pseudotaktowa	!
.	.	.	.	.	.	4f/	-pi-
=4-	=4-	=4-	=4-	=4-	=4-	=4-	=4-
!LO:TX:t=P:problem:kreska pseudotaktowa	!	!LO:TX:t=P:problem:kreska pseudotaktowa	!	!LO:TX:t=P:problem:kreska pseudotaktowa	!	!	!
*	*	*	*	*2\right	*	*2\right	*
1E-X	Vir-	1G	-go	1B-X	.	2g\	-ens
.	.	.	.	.	.	1g	Sa-
2C/	-go	1c	sa-	2e-X\	.	.	.
!	!	!	!	!	!	!LO:TX:t=P:problem:kreska pseudotaktowa:między nutą a kropką	!
1F\	sa-	.	.	2c/	.	[<2a\	.
=5-	=5-	=5-	=5-	=5-	=5-	=5-	=5-
*2\right	*	*2\right	*	*lig	*	*	*
!	!	!	!	!	!	!LO:N:xstem:cue:vis=4	!
.	.	2A\	.	1c	.	4a]	.
.	.	.	.	.	.	4g/	.
!LO:TX:t=P:problem:kreska pseudotaktowa	!	!	!	!	!	!	!
2E-X\	.	4B-\	.	.	.	4f/	.
.	.	4c\	.	.	.	4e/	.
!LO:TX:t=P:problem:kreska pseudotaktowa	!	!	!	!	!	!LO:TX:t=P:problem:kreska pseudotaktowa	!
1D	.	2d\	.	1d	.	1f	.
.	.	1B-\	.	.	.	.	.
*	*	*	*	*Xlig	*	*	*
=6-	=6-	=6-	=6-	=6-	=6-	=6-	=6-
2.C/	.	.	.	2.e-X\	.	2.g\	.
!	!	!LO:TX:t=P:problem:kreska pseudotaktowa	!	!	!	!	!
.	.	2A\	-pi-	.	.	.	.
!LO:TX:t=P:problem:kreska pseudotaktowa	!	!	!	!	!	!	!
4C/	-pi-	.	.	4e-\	-pi-	4a\	.
!LO:TX:t=P:problem:rozdzielacz słów / znak oddechu:global	!	!LO:TX:t=P:problem:rozdzielacz słów / znak oddechu:global	!	!	!	!	!
2BB-,/	-ens	2B-,\	-ens	1.d	-ens	2b-X\	.
4BB-/	sa-	4d\	sa-	.	.	2.f/	.
!LO:TX:t=P:problem:kreska pseudotaktowa	!	!	!	!	!	!	!
4C/	.	4c\	.	.	.	.	.
=7-	=7-	=7-	=7-	=7-	=7-	=7-	=7-
2D\	.	2B-\	.	.	.	.	.
.	.	.	.	.	.	4g/	.
!LO:TX:t=P:problem:kreska pseudotaktowa	!	!	!	!LO:TX:t=P:problem:kreska pseudotaktowa:ligatura przez kreskę	!	!	!
2F\	.	2c\	.	[<2f\	sa-	2a\	.
2.C/	.	2.c\	.	2f]	.	2.g/	.
.	.	.	.	2en\	-pi-	.	.
!LO:TX:t=P:problem:kreska pseudotaktowa	!	!LO:TX:t=P:problem:kreska pseudotaktowa	!	!	!	!LO:TX:t=P:problem:kreska pseudotaktowa	!
4C/	-pi-	4c\	-pi-	.	.	4g/	-pi-
=8-	=8-	=8-	=8-	=8-	=8-	=8-	=8-
!	!	!	!	!LO:TX:t=P:problem:rozdzielacz słów / znak oddechu:global	!	!LO:TX:t=P:problem:rozdzielacz słów / znak oddechu:global	!
2FF,/	-ens	2c,\	-ens	2f,\	-ens	2a,\	-ens
!	!	!	!	!LO:TX:t=P:problem:kreska pseudotaktowa:ligatura przez kreskę	!	!	!
1F	quam	2c\	quam	[<2a\	quam	2a\	quam
.	.	2A\	Do-	2a]	.	2f/	Do-
!LO:TX:t=P:problem:kreska pseudotaktowa	!	!LO:TX:t=P:problem:kreska pseudotaktowa	!	!	!	!LO:TX:t=P:problem:kreska pseudotaktowa	!
2En\	.	2B-\	.	2g,\	.	2g/	.
=9-	=9-	=9-	=9-	=9-	=9-	=9-	=9-
2F\	Do-	2A/	.	2f\	Do-	2a\	.
!LO:TX:t=P:problem:kreska pseudotaktowa	!	!	!	!	!	!	!
2G\	-mi-	2G/	-mi-	2d\	-mi-	2b-\	-mi-
2C,/	-n(us)	2c,\	-n(us)	2e,\	-n(us)	2g,\	-n(us)
!	!	!LO:TX:t=P:problem:kreska pseudotaktowa	!	!LO:TX:t=P:problem:kreska pseudotaktowa	!	!LO:LB:g=original	!
!LO:TX:t=P:problem:kreska pseudotaktowa	!	!LO:SIC:v:t=custos d	!	!LO:SIC:v:t=custos d	!	!LO:TX:t=P:problem:kreska pseudotaktowa	!
2F\	vi-	2c\	vi-	2f\	vi-	2a\	vi-
!	!	!LO:LB:g=original	!	!LO:LB:g=original	!	!LO:LB:g=original	!
=10-	=10-	=10-	=10-	=10-	=10-	=10-	=10-
2.BB-/	.	2.d\	.	2.d\	.	1.b-	.
!LO:TX:t=P:problem:kreska pseudotaktowa	!	!	!	!	!	!	!
4C/	-gi-	4c\	-gi-	4e\	-gi-	.	.
(>2D\	-lan-	2F/	-lan-	1f	-lan-	.	.
!LO:TX:t=P:problem:kreska pseudotaktowa	!	!	!	!	!	!	!
!LO:SIC:v:t=custos C	!	!	!	!	!	!LO:TX:t=P:problem:kreska pseudotaktowa	!
2F\)	.	2c\	.	.	.	2a\	-gi-
!LO:LB:g=original	!	!	!	!	!	!	!
=11-	=11-	=11-	=11-	=11-	=11-	=11-	=11-
2C/	-tem	2c,\	-tem	2e,\	-tem	2g/	-lan-
!LO:TX:t=P:problem:kreska pseudotaktowa	!	!	!	!	!	!	!
2F\	in-	2A\	in-	2c\	in-	1f	.
!	!	!	!	!LO:TX:t=P:problem:kreska pseudotaktowa	!	!	!
1C	-ve-	1G	-ve-	1c	-ve-	.	.
.	.	.	.	.	.	2e,/	-tem
=12-	=12-	=12-	=12-	=12-	=12-	=12-	=12-
2FF,/	-nit	2A,\	-nit	2c,\	-nit	2f/	in-
!LO:TX:t=P:problem:kreska pseudotaktowa	!	!	!	!	!	!	!
2F\	vi-	1c	vi-	2c\	vi-	2a\	-ve-
!	!	!	!	!	!	!LO:TX:t=P:problem:kreska pseudotaktowa	!
2.D/	.	.	.	2.d\	.	1f,	-nit
!	!	!LO:TX:t=P:problem:kreska pseudotaktowa	!	!	!	!	!
.	.	2Bn\	-gi-	.	.	.	.
4D/	-gi-	.	.	4d\	-gi-	.	.
=13-	=13-	=13-	=13-	=13-	=13-	=13-	=13-
!LO:TX:t=P:problem:kreska pseudotaktowa	!	!	!	!	!	!	!
*	*	*	*	*	*	*lig	*
1C	-lan-	1c	-lan-	1e	-lan-	1g	in-
2FF,/	-tem	2c\	-tem	2f,\	-tem	1a	.
!LO:TX:t=P:problem:kreska pseudotaktowa	!	!	!	!	!	!	!
2F\	in-	2c\	in-	2f\	in-	.	.
*	*	*	*	*	*	*Xlig	*
=14-	=14-	=14-	=14-	=14-	=14-	=14-	=14-
!LO:TX:t=P:problem:kreska pseudotaktowa	!	!	!	!	!	!	!
0C	-ve-	0c	-ve-	2e\	-ve-	(>2g\	-ve-
.	.	.	.	1f	.	2a\)	.
!	!	!	!	!	!	!LO:TX:t=P:problem:kreska pseudotaktowa	!
.	.	.	.	.	.	1g	.
.	.	.	.	2e\	.	.	.
=15-	=15-	=15-	=15-	=15-	=15-	=15-	=15-
2FF/	-nit	2c,\	-nit	2f\	-nit	2a\	-nit
!LO:TX:t=P:problem:kreska pseudotaktowa:	!	!LO:TX:t=P:problem:kreska pseudotaktowa:ligatura przez kreskę	!	!LO:TX:t=P:problem:kreska pseudotaktowa	!	!LO:TX:t=P:problem:kreska pseudotaktowa	!
2rBB	.	[<2c\	quae	2r	.	2r	.
!	!	!	!	!	!	!LO:TX:t=P:problem:kreska pseudotaktowa	!
0r	.	2c]	.	2r	.	1rdd	.
.	.	2B-X\	ac-	1f\	quae	.	.
=16-	=16-	=16-	=16-	=16-	=16-	=16-	=16-
.	.	(>1A	-ce-	.	.	1.cc	quae
.	.	.	.	1en	ac-	.	.
!LO:TX:t=P:problem:kreska pseudotaktowa	!	!	!	!	!	!	!
1r	.	1B-X)	.	.	.	.	.
.	.	.	.	1d\	-ce-	2b-X\	ac-
=17-	=17-	=17-	=17-	=17-	=17-	=17-	=17-
1.F	quae	2c,\	-ptis	.	.	1a	-ce-
!	!	!	!	!LO:TX:t=P:problem:kreska pseudotaktowa	!	!	!
.	.	2c\	lam-	2c/	-ptis	.	.
!	!	!	!	!LO:TX:t=P:problem:kreska pseudotaktowa	!	!	!
.	.	2.B-X\	-pa-	1ra	.	2.g,\	-ptis
!LO:TX:t=P:problem:kreska pseudotaktowa	!	!	!	!	!	!	!
2En\	ac-	.	.	.	.	.	.
!	!	!	!	!	!	!LO:TX:t=P:problem:kreska pseudotaktowa	!
.	.	4B-\	-di-	.	.	4g\	lam-
=18-	=18-	=18-	=18-	=18-	=18-	=18-	=18-
1D	-ce-	2F,/	-b(us)	1.f	lam-	(>2a\	.
!	!	!	!	!	!	!LO:TX:t=P:problem:kreska pseudotaktowa	!
.	.	1B-	lam-	.	.	2dd\)	.
!LO:TX:t=P:problem:kreska pseudotaktowa	!	!	!	!	!	!	!
1C	-ptis	.	.	.	.	2.g\	pa-
.	.	(>2A\	.	2e\	.	.	.
.	.	.	.	.	.	4a\	-di-
=19-	=19-	=19-	=19-	=19-	=19-	=19-	=19-
!LO:TX:t=P:problem:kreska pseudotaktowa	!	!	!	!	!	!	!
1BB-	lam-	1B-)	.	2.d\	-pa-	2b-,\	-b(us)
!	!	!	!	!	!	!LO:TX:t=P:problem:kreska pseudotaktowa	!
.	.	.	.	.	.	2f/	lam-
.	.	.	.	4d\	-di-	.	.
!	!	!LO:TX:t=P:problem:kreska pseudotaktowa	!	!	!	!	!
!LO:TX:t=P:problem:kreska pseudotaktowa	!	!LO:SIC:v:t=custos B	!	!	!	!	!
1F	.	1A	.	1c,	-b(us)	2a\	.
.	.	.	.	.	.	2.f/	.
!	!	!LO:LB:g=original	!	!	!	!	!
=20-	=20-	=20-	=20-	=20-	=20-	=20-	=20-
!LO:TX:t=P:problem:kreska pseudotaktowa	!	!	!	!	!	!	!
1D	.	1Bn	.	1d	lam-	.	.
.	.	.	.	.	.	4g/	.
.	.	.	.	.	.	4a/	.
!	!	!	!	!	!	!LO:TX:t=P:problem:kreska pseudotaktowa	!
.	.	.	.	.	.	4f/	.
!	!	!	!	!LO:TX:t=P:problem:kreska pseudotaktowa	!	!	!
!	!	!	!	!LO:SIC:v:t=custos f	!	!	!
4C/	.	1c	.	1e	.	2g\	.
4BB-/	.	.	.	.	.	.	.
4AA/	.	.	.	.	.	2a\	.
!LO:TX:t=P:problem:kreska pseudotaktowa	!	!	!	!	!	!	!
4GG/	.	.	.	.	.	.	.
!	!	!	!	!LO:LB:g=original	!	!	!
=21-	=21-	=21-	=21-	=21-	=21-	=21-	=21-
2FF/	.	1.c	-pa-	1.f	-pa-	2f/	.
!LO:TX:t=P:problem:kreska pseudotaktowa	!	!	!	!	!	!LO:TX:t=P:problem:kreska pseudotaktowa	!
2F\	.	.	.	.	.	2a\	.
!	!	!	!	!	!	!LO:LB:g=original	!
2.C/	-pa-	.	.	.	.	2.g\	-pa-
.	.	2c\	-di-	2e\	-di-	.	.
!LO:TX:t=P:problem:kreska pseudotaktowa	!	!	!	!	!	!	!
4C/	-di-	.	.	.	.	4g\	-di-
=22-	=22-	=22-	=22-	=22-	=22-	=22-	=22-
2FF,/	-b(us)	2c,\	-bus	2f,\	-b(us)	2a,\	-b(us)
!LO:TX:t=P:problem:kreska pseudotaktowa	!	!	!	!	!	!	!
2F\	lam-	2c\	lam-	1f	lam-	2a\	lam-
2G\	.	1G	.	.	.	2bn\	.
!LO:TX:t=P:problem:kreska pseudotaktowa	!	!	!	!	!	!	!
!LO:SIC:v:t=custos G	!	!	!	!	!	!	!
2C/	.	.	.	2e\	.	1cc\	-pa-
!LO:LB:g=original	!	!	!	!	!	!	!
=23-	=23-	=23-	=23-	=23-	=23-	=23-	=23-
2G\	-pa-	2.G/	-pa-	2.d\	pa-	.	.
!LO:TX:t=P:problem:kreska pseudotaktowa	!	!	!	!	!	!LO:TX:t=P:problem:kreska pseudotaktowa	!
2GG/	-di-	.	.	.	.	2b\	-di-
.	.	4G/	-di-	4d\	-di-	.	.
!LO:TX:t=P:problem:kreska pseudotaktowa	!	!LO:TX:t=P:problem:kreska pseudotaktowa	!	!LO:TX:t=P:problem:kreska pseudotaktowa	!	!	!
1C	-bus	1G	-b(us)	1e	-b(us)	2cc,\	-b(us)
.	.	.	.	.	.	(>4cc\	sum-
!	!	!	!	!	!	!LO:TX:t=P:problem:kreska pseudotaktowa	!
.	.	.	.	.	.	4bny\)	.
=24-	=24-	=24-	=24-	=24-	=24-	=24-	=24-
!LO:TX:t=P:problem:kreska pseudotaktowa	!	!	!	!LO:TX:t=P:problem:kreska pseudotaktowa	!	!	!
00r	.	0r	.	1ra	.	(>4cc\	.
.	.	.	.	.	.	4dd\	.
.	.	.	.	.	.	4cc\)	.
!	!	!	!	!	!	!LO:TX:t=P:problem:kreska pseudotaktowa	!
.	.	.	.	.	.	4bny\	.
.	.	.	.	1f	sum-	1a,	-psit
=25-	=25-	=25-	=25-	=25-	=25-	=25-	=25-
!	!	!LO:TX:t=P:problem:kreska pseudotaktowa	!	!LO:TX:t=P:problem:kreska pseudotaktowa	!	!	!
.	.	1r	.	1d	-psit	1b-X	se-
!	!	!	!	!	!	!LO:TX:t=P:problem:kreska pseudotaktowa	!
.	.	1c	sum-	1en	se-	1g	-cum
=26-	=26-	=26-	=26-	=26-	=26-	=26-	=26-
!LO:TX:t=P:problem:kreska pseudotaktowa	!	!LO:TX:t=P:problem:kreska pseudotaktowa	!	!LO:TX:t=P:problem:kreska pseudotaktowa	!	!	!
1F	sum-	1A	-psit	1c	-cum	4a\	o-
.	.	.	.	.	.	4g\	.
.	.	.	.	.	.	4f/	.
.	.	.	.	.	.	4e/	.
!LO:TX:t=P:problem:kreska pseudotaktowa	!	!	!	!	!	!	!
1D	-psit	1B-X	se-	1d	sum-	2.f/	.
.	.	.	.	.	.	4f/	-le-
=27-	=27-	=27-	=27-	=27-	=27-	=27-	=27-
!	!	!LO:TX:t=P:problem:kreska pseudotaktowa	!	!	!	!	!
1E-X	se-	1G	-cum	1B-X	-psit	2g,\	-um
.	.	.	.	.	.	1g	o-
2C/	-cum	1c	o-	2e-X\	se-	.	.
!	!	!	!	!	!	!LO:TX:t=P:problem:kreska pseudotaktowa:między nutą a kropką	!
1F\	o-	.	.	2c/	-cu(m)	[<2a\	.
=28-	=28-	=28-	=28-	=28-	=28-	=28-	=28-
!	!	!	!	!LO:TX:t=P:problem:kreska pseudotaktowa	!	!LO:N:xstem:cue	!
!	!	!	!	!	!	!LO:N:xstem:cue:vis=4	!
.	.	2A\	.	1c	o-	4a]	.
.	.	.	.	.	.	4g/	.
!LO:TX:t=P:problem:kreska pseudotaktowa	!	!	!	!	!	!	!
2E-X\	.	4B-\	.	.	.	4f/	.
.	.	4c\	.	.	.	4e/	.
!	!	!	!	!	!	!LO:TX:t=P:problem:kreska pseudotaktowa	!
1D	.	2d\	.	1d	.	1f	.
.	.	1B-\	.	.	.	.	.
=29-	=29-	=29-	=29-	=29-	=29-	=29-	=29-
2.C/	.	.	.	2.e-X\	.	2.g\	.
!	!	!LO:TX:t=P:problem:kreska pseudotaktowa	!	!	!	!	!
.	.	2A\	-le-	.	.	.	.
!LO:TX:t=P:problem:kreska pseudotaktowa	!	!	!	!	!	!	!
4C/	-le-	.	.	4e-\	-le-	4a\	-le-
2BB-,/	-um	2B-,\	-um	1.d	-um	2b-\	-um
4BB-/	o-	(>4d\	sum-	.	.	2.f/	o-
!LO:TX:t=P:problem:kreska pseudotaktowa	!	!LO:TX:t=P:problem:kreska pseudotaktowa	!	!	!	!	!
4C/	.	4c\)	.	.	.	.	.
=30-	=30-	=30-	=30-	=30-	=30-	=30-	=30-
2D\	.	2B-\	-psit	.	.	.	.
.	.	.	.	.	.	4g/	.
!	!	!	!	!	!	!LO:TX:t=P:problem:kreska pseudotaktowa	!
!LO:TX:t=P:problem:kreska pseudotaktowa	!	!	!	!LO:TX:t=P:problem:kreska pseudotaktowa	!	!LO:SIC:v:t=custos g	!
2F\	.	2c\	.	[<2f\	sum-	2a\	.
!	!	!	!	!	!	!LO:LB:g=original	!
2.C/	.	2.c\	o-	2f]	.	2.g/	.
.	.	.	.	2eny\	-psit	.	.
!	!	!LO:TX:t=P:problem:kreska pseudotaktowa	!	!	!	!	!
!LO:TX:t=P:problem:kreska pseudotaktowa	!	!LO:SIC:v:t=custos c	!	!	!	!	!
4C/	-le-	4c\	-le-	.	.	4g/	-le-
!	!	!LO:LB:g=original	!	!	!	!	!
=31-	=31-	=31-	=31-	=31-	=31-	=31-	=31-
2FF,/	-um	2c,\	-um	2f\	se-	2a,\	-um
!	!	!	!	!	!	!LO:TX:t=P:problem:kreska pseudotaktowa	!
1F	quae	2c\	sum-	1a	.	2a\	quae
.	.	2A\	.	.	.	(<2f/	ac-
!LO:TX:t=P:problem:kreska pseudotaktowa	!	!	!	!LO:TX:t=P:problem:kreska pseudotaktowa	!	!	!
2En\	ac-	2B-\	-psit	2g\	.	2g/)	.
!	!	!	!	!LO:LB:g=original	!	!	!
=32-	=32-	=32-	=32-	=32-	=32-	=32-	=32-
2F\	-ce-	2A/	se-	2f\	.	(>2a\	-ce-
!LO:TX:t=P:problem:kreska pseudotaktowa	!	!LO:TX:t=P:problem:kreska pseudotaktowa	!	!	!	!	!
2G\	.	2G/	-cum	2d\	.	2b-\)	.
2C/	-ptis	2c\	o-	2e,\	-cum	2g,\	-ptis
!LO:TX:t=P:problem:kreska pseudotaktowa	!	!	!	!	!	!	!
2F\	lam-	2c\	-le-	2f\	o-	2a\	lam-
=33-	=33-	=33-	=33-	=33-	=33-	=33-	=33-
2.BB-/	.	2d,\	-um	2.d\	.	1.b-X	-pa-
.	.	2B-\	sum-	.	.	.	.
!LO:TX:t=P:problem:kreska pseudotaktowa	!	!	!	!	!	!	!
4C/	.	.	.	4e\	-le-	.	.
2D\	.	2F,/	-psit	2f,\	-um	.	.
!LO:TX:t=P:problem:kreska pseudotaktowa	!	!LO:TX:t=P:problem:kreska pseudotaktowa:ligatura przez kreskę	!	!	!	!LO:TX:t=P:problem:kreska pseudotaktowa	!
2F\	.	[<2c\	se-	2f\	sum-	2a\	-di-
=34-	=34-	=34-	=34-	=34-	=34-	=34-	=34-
2C/	.	2c]	.	(>2e\	-psit	2g,/	-b(us)
!LO:TX:t=P:problem:kreska pseudotaktowa	!	!	!	!	!	!	!
2F\	.	2A\	-cum	2c,/)	.	1f	sum-
2.C/	-pa-	2.G/	o-	[<1c	se-	.	.
!	!	!	!	!	!	!LO:TX:t=P:problem:kreska pseudotaktowa	!
.	.	.	.	.	.	2e/	.
!LO:TX:t=P:problem:kreska pseudotaktowa	!	!	!	!	!	!	!
4C/	-di-	4G/	-le-	.	.	.	.
!LO:LB:g=original	!	!	!	!	!	!	!
=35-	=35-	=35-	=35-	=35-	=35-	=35-	=35-
2FF/	-bus	2A,\	-um	2c/]	.	2f,/	-pſit
!LO:TX:t=P:problem:kreska pseudotaktowa	!	!	!	!	!	!	!
*	*	*	*ij	*	*	*	*
2F\	sum-	1c	o-	2c/	-cum	2a\	se-
2D/	.	.	.	2.d\	o-	2f,/	-cum
!LO:TX:t=P:problem:kreska pseudotaktowa	!	!LO:TX:t=P:problem:kreska pseudotaktowa	!	!	!	!	!
2D/	-psit	2Bn\	-le-	.	.	2f/	o-
.	.	.	.	4d\	-le-	.	.
=36-	=36-	=36-	=36-	=36-	=36-	=36-	=36-
2C/	se-	2c,\	-um	2e,\	-um	1g	.
*	*	*	*Xij	*	*	*	*
!LO:TX:t=P:problem:kreska pseudotaktowa	!	!LO:TX:t=P:problem:kreska pseudotaktowa:ligatura przez kreskę	!	!	!	!	!
2C/	-cum	[<2c\	sum-	2e\	o-	.	.
!	!	!	!	!	!	!LO:TX:t=P:problem:kreska pseudotaktowa	!
2FF/	o-	2c]	.	2.f\	.	1a	.
!LO:TX:t=P:problem:kreska pseudotaktowa	!	!	!	!	!	!	!
2F\	.	2c\	-psit	.	.	.	.
!	!	!	!	!LO:TX:t=P:problem:kreska pseudotaktowa	!	!	!
.	.	.	.	4f\	-le-	.	.
=37-	=37-	=37-	=37-	=37-	=37-	=37-	=37-
1.C	.	1.c	o-	2e,\	-um	2g\	.
*	*	*	*	*	*ij	*	*
.	.	.	.	1f	o-	2a\	.
.	.	.	.	.	.	2.g/	.
!LO:TX:t=P:problem:kreska pseudotaktowa	!	!LO:TX:t=P:problem:kreska pseudotaktowa	!	!	!	!	!
2C/	-le-	2c\	-le-	2e\	-le-	.	.
!	!	!	!	!	!	!LO:TX:t=P:problem:kreska pseudotaktowa	!
.	.	.	.	.	.	4g/	-le-
=38-	=38-	=38-	=38-	=38-	=38-	=38-	=38-
2FF,/	-um;	2c,\	-um;	2f,\	-um	2a,\	-um
*	*	*	*	*	*Xij	*	*
!LO:TX:t=P:problem:kreska pseudotaktowa	!	!	!	!	!	!	!
2F\	et	2c\	et	2f\	et	2a\	et
2G\	ve-	2B-X\	ve-	2e\	ve-	2b-X\	ve-
!LO:TX:t=P:problem:kreska pseudotaktowa	!	!	!	!	!	!LO:TX:t=P:problem:kreska pseudotaktowa	!
2A\	-ni-	2A\	-ni-	2e\	-ni-	2cc\	-ni-
=39-	=39-	=39-	=39-	=39-	=39-	=39-	=39-
2B-\	-en-	2F/	-en-	2d\	-en-	2b-\	-en-
!LO:TX:t=P:problem:kreska pseudotaktowa	!	!LO:TX:t=P:problem:kreska pseudotaktowa	!	!LO:TX:t=P:problem:kreska pseudotaktowa	!	!	!
2F\	-te	2A\	-te	2f\	-te	2cc,\	-te
!	!	!LO:LB:g=original	!	!	!	!	!
!	!	!	!	!	!	!LO:TX:t=P:problem:kreska pseudotaktowa	!
2E\	Do-	2G/	Do-	2g\	Do-	1cc	Do-
!LO:TX:t=P:problem:kreska pseudotaktowa	!	!LO:TX:t=P:problem:kreska pseudotaktowa	!	!	!	!	!
2F\	.	2A/	.	1f\	.	.	.
=40-	=40-	=40-	=40-	=40-	=40-	=40-	=40-
2D/	.	2d\	.	.	.	(>2bn\	.
!	!	!	!	!	!	!LO:TX:t=P:problem:kreska pseudotaktowa	!
!LO:TX:t=P:problem:kreska pseudotaktowa	!	!	!	!LO:TX:t=P:problem:kreska pseudotaktowa	!	!LO:SIC:v:t=custos dd	!
2C/	.	4G/	.	2e\	.	2cc\)	.
!	!	!LO:TX:t=P:problem:kreska pseudotaktowa	!	!	!	!	!
.	.	4A/	.	.	.	.	.
!	!	!	!	!LO:LB:g=original	!	!LO:LB:g=original	!
2G\	.	2Bn\	.	2d\	.	2dd\	.
!LO:TX:t=P:problem:kreska pseudotaktowa	!	!	!	!	!	!	!
2C/	.	2c\	.	2e\	.	1cc\	.
=41-	=41-	=41-	=41-	=41-	=41-	=41-	=41-
2G\	.	2.G/	.	2.d\	.	.	.
!LO:TX:t=P:problem:kreska pseudotaktowa	!	!	!	!	!	!	!
2GG/	-mi-	.	.	.	.	2bn\	-mi-
.	.	4G/	-mi-	4d\	-mi-	.	.
2C,/	-no	2G,/	-no,	2e,\	-no	2cc,\	-no
4A\	ve-	4c\	Ve-	4f\	ve-	4a\	ve-
!LO:TX:t=P:problem:kreska pseudotaktowa	!	!LO:TX:t=P:problem:kreska pseudotaktowa	!	!	!	!LO:TX:t=P:problem:kreska pseudotaktowa	!
4G\	-ni-	4B-X\	-ni-	4g\	-ni-	4b-y\	-ni-
=42-	=42-	=42-	=42-	=42-	=42-	=42-	=42-
2F\	-en-	2A\	-en-	2a\	-en-	2cc\	-en-
!LO:TX:t=P:problem:kreska pseudotaktowa	!	!	!	!LO:TX:t=P:problem:kreska pseudotaktowa	!	!	!
2B-\	-te	2B-\	-te	2f\	-te	2dd,\	-te
2c\	Do-	2G/	Do-	2e\	Do-	2cc\	Do-
!LO:TX:t=P:problem:kreska pseudotaktowa	!	!	!	!	!	!	!
2F\	.	1c\	.	1f\	.	2a\	.
=43-	=43-	=43-	=43-	=43-	=43-	=43-	=43-
2c\	.	.	.	.	.	2.g/	.
!LO:TX:t=P:problem:kreska pseudotaktowa	!	!LO:TX:t=P:problem:kreska pseudotaktowa	!	!LO:TX:t=P:problem:kreska pseudotaktowa	!	!	!
2C/	mi-	2c\	-mi-	2e\	-mi-	.	.
!	!	!	!	!	!	!LO:TX:t=P:problem:kreska pseudotaktowa	!
.	.	.	.	.	.	4g/	-mi-
2F\	-no	2c,\	-no,	2f\	-no,	2a\	-no,
!LO:TX:t=P:problem:kreska pseudotaktowa	!	!	!	!	!	!	!
!LO:TX:i:b:B:t=tarde	!	!LO:TX:i:b:B:t=tarde.	!	!LO:TX:t=P:problem:kreska pseudotaktowa	!	!LO:TX:t=P:problem:kreska pseudotaktowa	!
2r	.	4F/	in-	2r	.	2r	.
!	!	!LO:TX:t=P:problem:kreska pseudotaktowa	!	!	!	!	!
.	.	4F/	-tro-	.	.	.	.
!LO:LB:g=original	!	!	!	!	!	!	!
=44-	=44-	=44-	=44-	=44-	=44-	=44-	=44-
!LO:TX:t=P:problem:kreska pseudotaktowa	!	!	!	!LO:TX:i:b:B:t=tarde	!	!LO:TX:b:i:B:t=tarde.	!
0r	.	2G/	-i-	00r	.	00r	.
.	.	4G/	-vit	.	.	.	.
!	!	!LO:TX:t=P:problem:kreska pseudotaktowa	!	!	!	!	!
.	.	4G/	cum	.	.	.	.
.	.	(<4F/	E-	.	.	.	.
.	.	4G/)	.	.	.	.	.
.	.	4A,/	-o	.	.	.	.
!	!	!LO:TX:t=P:problem:kreska pseudotaktowa	!	!	!	!	!
.	.	4F/	ad	.	.	.	.
=45-	=45-	=45-	=45-	=45-	=45-	=45-	=45-
2rBB	.	4c\	nu-	.	.	.	.
.	.	4c\	-pti-	.	.	.	.
4C/	in-	4c\	-as	.	.	.	.
!LO:TX:t=P:problem:kreska pseudotaktowa	!	!LO:TX:t=P:problem:kreska pseudotaktowa	!	!	!	!	!
4C/	-tro-	4c\	ad	.	.	.	.
2D\	-i-	2c\	nu-	.	.	.	.
!	!	!LO:TX:t=P:problem:kreska pseudotaktowa	!	!	!	!	!
!	!	!LO:SIC:v:t=custos c	!	!	!	!	!
4D\	-vit	2Bn\	-pti-	.	.	.	.
!LO:TX:t=P:problem:kreska pseudotaktowa	!	!	!	!	!	!	!
4D\	cum	.	.	.	.	.	.
!	!	!LO:LB:g=original	!	!	!	!	!
=46-	=46-	=46-	=46-	=46-	=46-	=46-	=46-
!	!	!	!	!LO:TX:t=P:problem:kreska pseudotaktowa	!	!LO:TX:t=P:problem:kreska pseudotaktowa	!
(<4C/	e-	4c,\	-as,	00r	.	1r	.
4D/)	.	4G/	et	.	.	.	.
4E,/	-o	4G/	in-	.	.	.	.
!LO:TX:t=P:problem:kreska pseudotaktowa	!	!LO:TX:t=P:problem:kreska pseudotaktowa	!	!	!	!	!
4C/	ad	4G/	-tro-	.	.	.	.
4F\	nu-	(>4A\	-i-	.	.	2re	.
4F\	-pti-	4B-y\	.	.	.	.	.
4F\	-as	4c\)	.	.	.	4f/	in-
!LO:TX:t=P:problem:kreska pseudotaktowa	!	!LO:TX:t=P:problem:kreska pseudotaktowa	!	!	!	!LO:TX:t=P:problem:kreska pseudotaktowa	!
4F\	ad	4A\	.	.	.	4f/	-tro-
=47-	=47-	=47-	=47-	=47-	=47-	=47-	=47-
2F\	nu-	2B-X\	.	.	.	2g/	-i-
!LO:TX:t=P:problem:kreska pseudotaktowa	!	!	!	!	!	!	!
2E\	-pti-	4B-\	-vit	.	.	4g/	-vit
!	!	!LO:TX:t=P:problem:kreska pseudotaktowa	!	!	!	!LO:TX:t=P:problem:kreska pseudotaktowa	!
.	.	4B-\	cum	.	.	4g/	cum
2F,\	-as	2A\	e-	.	.	(<4f/	e-
.	.	.	.	.	.	4g/)	.
4F\	in-	4A\	-o	.	.	4a/	-o
!LO:TX:t=P:problem:kreska pseudotaktowa	!	!	!	!	!	!LO:TX:t=P:problem:kreska pseudotaktowa	!
4F\	-tro-	4A\	ad	.	.	4f/	ad
=48-	=48-	=48-	=48-	=48-	=48-	=48-	=48-
2E\	-i-	2.G/	nu-	2r	.	4cc\	nu-
.	.	.	.	.	.	4cc\	-pti-
4E\	-vit	.	.	4c\	in-	4cc\	-as
!LO:TX:t=P:problem:kreska pseudotaktowa	!	!LO:TX:t=P:problem:kreska pseudotaktowa	!	!LO:TX:t=P:problem:kreska pseudotaktowa	!	!LO:TX:t=P:problem:kreska pseudotaktowa	!
4E\	ad	4G/	-pti-	4c\	-tro-	4cc\	ad
2F\	nu-	4A,/	-as	2d\	-i-	2cc\	nu-
.	.	4A/	ad	.	.	.	.
!	!	!	!	!	!	!LO:TX:t=P:problem:kreska pseudotaktowa	!
4G\	.	4G/	nu-	4d,\	-vit	2bn\	-pti-
!LO:TX:t=P:problem:kreska pseudotaktowa	!	!LO:TX:t=P:problem:kreska pseudotaktowa	!	!LO:TX:t=P:problem:kreska pseudotaktowa	!	!	!
4GG/	-pti-	4G/	-pti-	4d\	cum	.	.
=49-	=49-	=49-	=49-	=49-	=49-	=49-	=49-
2C/	-as	2G/	-as	(>4c\	e-	4cc,\	-as,
.	.	.	.	4d\)	.	4g/	et
!LO:TX:t=P:problem:kreska pseudotaktowa	!	!LO:TX:t=P:problem:kreska pseudotaktowa	!	!	!	!	!
2r	.	2r	.	4en,\	-o	4g/	in-
!	!	!	!	!	!	!LO:TX:t=P:problem:kreska pseudotaktowa	!
!	!	!	!	!LO:TX:t=P:problem:kreska pseudotaktowa	!	!LO:SIC:v:t=custos a	!
.	.	.	.	4c\	ad	4g/	-tro-
!	!	!	!	!	!	!LO:LB:g=original	!
!LO:TX:t=P:problem:kreska pseudotaktowa	!	!LO:TX:t=P:problem:kreska pseudotaktowa	!	!	!	!	!
00r	.	1re	.	4f\	nu-	(>4a\	-i-
.	.	.	.	4f\	-pti-	4b-y\)	.
.	.	.	.	4f,\	-as	4cc,\	-vit
!	!	!	!	!LO:TX:t=P:problem:kreska pseudotaktowa	!	!	!
.	.	.	.	4f\	ad	4a\	ad
=50-	=50-	=50-	=50-	=50-	=50-	=50-	=50-
.	.	(>4c\	in-	2f\	nu-	2.g\	nu-
.	.	4d\)	.	.	.	.	.
!	!	!	!	!LO:TX:t=P:problem:kreska pseudotaktowa	!	!	!
.	.	(>4c\	-tro-	2e\	-pti-	.	.
!	!	!LO:TX:t=P:problem:kreska pseudotaktowa	!	!	!	!LO:TX:t=P:problem:kreska pseudotaktowa	!
.	.	4B-\)	.	.	.	4g\	-pti-
!	!	!	!	!	!	!LO:TX:t=P:problem:kreska pseudotaktowa	!
.	.	4A\	-i-	2f\	-as	1a	-as
.	.	4B-\	.	.	.	.	.
!	!	!	!	!LO:TX:t=P:problem:kreska pseudotaktowa	!	!	!
.	.	4A\	.	2r	.	.	.
!	!	!LO:TX:t=P:problem:kreska pseudotaktowa	!	!	!	!	!
.	.	4G\	.	.	.	.	.
!	!	!	!	!LO:LB:g=original	!	!	!
=51-	=51-	=51-	=51-	=51-	=51-	=51-	=51-
!	!	!	!	!LO:TX:t=P:problem:kreska pseudotaktowa	!	!	!
.	.	1F	.	0r	.	(>4cc\	in-
.	.	.	.	.	.	4dd\)	.
.	.	.	.	.	.	(>4cc\	-tro-
!	!	!	!	!	!	!LO:TX:t=P:problem:kreska pseudotaktowa	!
.	.	.	.	.	.	4b-\)	.
!	!	!LO:TX:t=P:problem:kreska pseudotaktowa	!	!	!	!	!
(>4F\	in-	1F	-vit	.	.	(>4a\	-i-
4G\)	.	.	.	.	.	4b-\	.
(>4F\	-tro-	.	.	.	.	4a\)	.
!LO:TX:t=P:problem:kreska pseudotaktowa	!	!	!	!	!	!LO:TX:t=P:problem:kreska pseudotaktowa	!
4E-X\)	.	.	.	.	.	4g\	.
=52-	=52-	=52-	=52-	=52-	=52-	=52-	=52-
!	!	!LO:TX:t=P:problem:kreska pseudotaktowa	!	!	!	!	!
4D\	-i-	1re	.	(>4f\	in-	2f,/	-vit
(>4E-X\	.	.	.	4g\)	.	.	.
!	!	!	!	!	!	!LO:TX:t=P:problem:kreska pseudotaktowa	!
4D\)	.	.	.	(>4f\	-tro-	2f/	et
!LO:TX:t=P:problem:kreska pseudotaktowa	!	!	!	!	!	!	!
!LO:SIC:v:t=custos BB-	!	!	!	!LO:TX:t=P:problem:kreska pseudotaktowa	!	!	!
4C\	.	.	.	4e-X\)	.	.	.
!LO:LB:g=original	!	!	!	!	!	!	!
2BB-/	.	(>4B-X\	in-	4d\	-i-	2f/	in-
.	.	4c\)	.	4e-X\	.	.	.
!LO:TX:t=P:problem:kreska pseudotaktowa	!	!	!	!	!	!LO:TX:t=P:problem:kreska pseudotaktowa	!
2B-\	-vit	(>4B-\	-tro-	4d\	.	2f/	-tro-
!	!	!	!	!LO:TX:t=P:problem:kreska pseudotaktowa	!	!	!
.	.	4An\)	.	4c\	.	.	.
=53-	=53-	=53-	=53-	=53-	=53-	=53-	=53-
!LO:TX:t=P:problem:kreska pseudotaktowa	!	!	!	!	!	!	!
1B-	et	(<4G/	-i-	2B-/	.	(>4b-\	-i-
.	.	4A/	.	.	.	4cc\	.
!	!	!	!	!LO:TX:t=P:problem:kreska pseudotaktowa	!	!	!
.	.	4G/	.	2B-/	-vit	4b-\)	.
!	!	!	!	!	!	!LO:TX:t=P:problem:kreska pseudotaktowa	!
.	.	4F/)	.	.	.	4a\	.
!	!	!LO:TX:t=P:problem:kreska pseudotaktowa	!	!LO:TX:t=P:problem:kreska pseudotaktowa	!	!	!
!	!	!LO:SIC:v:t=custos F	!	!	!	!	!
(>4c\	in-	1En	.	0r	.	2g,\	-vit
4d\)	.	.	.	.	.	.	.
!	!	!	!	!	!	!LO:TX:t=P:problem:kreska pseudotaktowa	!
(>4c\	-tro-	.	.	.	.	2g\	et
!LO:TX:t=P:problem:kreska pseudotaktowa	!	!	!	!	!	!	!
4B-\)	.	.	.	.	.	.	.
!	!	!LO:LB:g=original	!	!	!	!	!
=54-	=54-	=54-	=54-	=54-	=54-	=54-	=54-
!	!	!LO:TX:t=P:problem:kreska pseudotaktowa	!	!	!	!	!
!	!	!LO:TX:t=P:problem:kreska pseudotaktowa	!	!	!	!	!
4A\	-i-	1F	-vit	.	.	(>4cc\	in-
4B-\	.	.	.	.	.	4dd\)	.
4A\	.	.	.	.	.	(>4cc\	-tro-
!LO:TX:t=P:problem:kreska pseudotaktowa	!	!	!	!	!	!LO:TX:t=P:problem:kreska pseudotaktowa	!
4G\	.	.	.	.	.	4b-\)	.
!LO:TX:t=P:problem:kreska pseudotaktowa	!	!	!	!	!	!	!
1F	.	2r	.	(>4f\	in-	(>4a\	-i-
.	.	.	.	4g\)	.	4b-\	.
.	.	4c\	in-	4f\	-tro-	4a\)	.
!	!	!LO:TX:t=P:problem:kreska pseudotaktowa	!	!	!	!	!
!	!	!LO:TX:t=P:problem:kreska pseudotaktowa	!	!LO:TX:t=P:problem:kreska pseudotaktowa	!	!LO:TX:t=P:problem:kreska pseudotaktowa	!
.	.	4c\	-tro-	4e-X\	.	4g\	.
=55-	=55-	=55-	=55-	=55-	=55-	=55-	=55-
2F,\	-vit	2A\	-i-	(>4d\	-i-	2f,/	-vit
.	.	.	.	4e-\)	.	.	.
!LO:TX:t=P:problem:kreska pseudotaktowa	!	!	!	!	!	!LO:TX:t=P:problem:kreska pseudotaktowa	!
2B-\	cum	4F,/	-vit	4d,\	-vit	2f/	ad
!	!	!LO:TX:t=P:problem:kreska pseudotaktowa	!	!LO:TX:t=P:problem:kreska pseudotaktowa	!	!	!
.	.	4F/	ad	4c\	ad	.	.
2G\	e-	2G/	nu-	2B-/	nu-	2b-\	nu-
!	!	!	!	!	!	!LO:TX:t=P:problem:kreska pseudotaktowa	!
!LO:TX:t=P:problem:kreska pseudotaktowa	!	!LO:TX:t=P:problem:kreska pseudotaktowa	!	!	!	!LO:SIC:v:t=custos cc	!
2c\	-o	2E/	-pti-	4c/	.	2g\	-pti-
!	!	!	!	!LO:TX:t=P:problem:kreska pseudotaktowa	!	!	!
.	.	.	.	4c/	-pti-	.	.
!	!	!	!	!	!	!LO:LB:g=original	!
=56-	=56-	=56-	=56-	=56-	=56-	=56-	=56-
(>2A\	ad	2F,/	-as	2c,/	-as	2cc,\	-as
!LO:TX:t=P:problem:kreska pseudotaktowa	!	!	!	!	!	!	!
2F\)	.	4A/	in-	4f\	in-	4cc\	in-
!	!	!LO:TX:t=P:problem:kreska pseudotaktowa	!	!LO:TX:t=P:problem:kreska pseudotaktowa	!	!LO:TX:t=P:problem:kreska pseudotaktowa	!
.	.	4A/	-tro-	4f\	-tro-	4cc\	-tro-
2B-\	nu-	(<4F/	-i-	(>4d\	-i-	2dd\	-i-
.	.	4G/)	.	4en\)	.	.	.
!LO:TX:t=P:problem:kreska pseudotaktowa	!	!	!	!	!	!	!
2F\	.	4A,/	-vit	4f,\	-vit	4cc,\	-vit
!	!	!	!	!LO:TX:t=P:problem:kreska pseudotaktowa	!	!LO:TX:t=P:problem:kreska pseudotaktowa	!
.	.	8B-/L	ad	4f\	ad	4cc\	ad
!	!	!LO:TX:t=P:problem:kreska pseudotaktowa	!	!	!	!	!
.	.	8A/J	.	.	.	.	.
=57-	=57-	=57-	=57-	=57-	=57-	=57-	=57-
2c\	-pti-	2.G/	nu-	2f\	nu-	2.cc\	nu-
!LO:TX:t=P:problem:kreska pseudotaktowa	!	!	!	!LO:TX:t=P:problem:kreska pseudotaktowa	!	!	!
2C/	.	.	.	2e\	-pti-	.	.
!	!	!LO:TX:t=P:problem:kreska pseudotaktowa	!	!	!	!LO:TX:t=P:problem:kreska pseudotaktowa	!
.	.	4G/	-pti-	.	.	4cc\	-pti-
2F,\	-as	2A,\	-as	2f,\	-as	2cc,\	-as
!	!	!	!	!LO:SIC:v:t=custos f	!	!	!
!LO:TX:t=P:problem:kreska pseudotaktowa	!	!	!	!LO:TX:t=P:problem:kreska pseudotaktowa	!	!LO:TX:t=P:problem:kreska pseudotaktowa	!
2F\	ad	2A\	ad	2f\	ad	2cc\	ad
!	!	!	!	!LO:LB:g=original	!	!	!
=58-	=58-	=58-	=58-	=58-	=58-	=58-	=58-
!LO:TX:t=P:problem:kreska pseudotaktowa:między nutą a kropką	!	!	!	!	!	!	!
[<1B-	nu-	1.B-	nu-	1.f	nu-	1.dd	nu-
!LO:N:xstem:cue:vis=4	!	!	!	!	!	!	!
2B-]	.	.	.	.	.	.	.
!LO:TX:t=P:problem:kreska pseudotaktowa	!	!	!	!	!	!	!
2B-\	-pti-	2B-\	-pti-	2f\	-pti-	2dd\	-pti-
=59-	=59-	=59-	=59-	=59-	=59-	=59-	=59-
0F;>	-as.	0A;>	-as.	0f;>	-as.	0cc;>	-as.
==	==	==	==	==	==	==	==
*-	*-	*-	*-	*-	*-	*-	*-
!!!system-decoration: [(s1,s2,s3,s4)]
!!!RDF**kern: > = above
!!!RDF**kern: < = below
!!!EED: Mateusz Mrugas
!!!EST: 2021-03-17
!!!AIN: 1 alto 1 bass 1 soprn 1 tenor
!!!ENC: Andrzej Kubiczek
!!!END: 2021-02-25
